images/indikatorenset/5878.svg

<?xml version="1.0" standalone="no"?><!DOCTYPE svg PUBLIC "-//W3C//DTD SVG 1.1//EN" "http://www.w3.org/Graphics/SVG/1.1/DTD/svg11.dtd"><svg xmlns:xlink="http://www.w3.org/1999/xlink" version="1.1" class="highcharts-root" style="font-family:arial;font-size:12px;" xmlns="http://www.w3.org/2000/svg" width="665" height="208"><desc>Created with Highstock 5.0.14</desc><defs><clipPath id="highcharts-525fd3m-6"><rect x="0" y="0" width="585" height="86" fill="none"></rect></clipPath><clipPath id="highcharts-525fd3m-7"><rect x="0" y="0" width="585" height="86" fill="none"></rect></clipPath></defs><rect fill="#fbfbfb" class="highcharts-background" x="0" y="0" width="665" height="208" rx="0" ry="0"></rect><rect fill="none" class="highcharts-plot-background" x="77" y="43" width="585" height="86"></rect><g class="highcharts-pane-group"></g><g class="highcharts-grid highcharts-xaxis-grid "><path fill="none" class="highcharts-grid-line" d="M 104.5 43 L 104.5 129" opacity="1"></path><path fill="none" class="highcharts-grid-line" d="M 132.5 43 L 132.5 129" opacity="1"></path><path fill="none" class="highcharts-grid-line" d="M 160.5 43 L 160.5 129" opacity="1"></path><path fill="none" class="highcharts-grid-line" d="M 187.5 43 L 187.5 129" opacity="1"></path><path fill="none" class="highcharts-grid-line" d="M 215.5 43 L 215.5 129" opacity="1"></path><path fill="none" class="highcharts-grid-line" d="M 243.5 43 L 243.5 129" opacity="1"></path><path fill="none" class="highcharts-grid-line" d="M 271.5 43 L 271.5 129" opacity="1"></path><path fill="none" class="highcharts-grid-line" d="M 299.5 43 L 299.5 129" opacity="1"></path><path fill="none" class="highcharts-grid-line" d="M 327.5 43 L 327.5 129" opacity="1"></path><path fill="none" class="highcharts-grid-line" d="M 355.5 43 L 355.5 129" opacity="1"></path><path fill="none" class="highcharts-grid-line" d="M 382.5 43 L 382.5 129" opacity="1"></path><path fill="none" class="highcharts-grid-line" d="M 410.5 43 L 410.5 129" opacity="1"></path><path fill="none" class="highcharts-grid-line" d="M 438.5 43 L 438.5 129" opacity="1"></path><path fill="none" class="highcharts-grid-line" d="M 466.5 43 L 466.5 129" opacity="1"></path><path fill="none" class="highcharts-grid-line" d="M 494.5 43 L 494.5 129" opacity="1"></path><path fill="none" class="highcharts-grid-line" d="M 522.5 43 L 522.5 129" opacity="1"></path><path fill="none" class="highcharts-grid-line" d="M 550.5 43 L 550.5 129" opacity="1"></path><path fill="none" class="highcharts-grid-line" d="M 577.5 43 L 577.5 129" opacity="1"></path><path fill="none" class="highcharts-grid-line" d="M 605.5 43 L 605.5 129" opacity="1"></path><path fill="none" class="highcharts-grid-line" d="M 633.5 43 L 633.5 129" opacity="1"></path><path fill="none" class="highcharts-grid-line" d="M 661.5 43 L 661.5 129" opacity="1"></path><path fill="none" class="highcharts-grid-line" d="M 76.5 43 L 76.5 129" opacity="1"></path></g><g class="highcharts-grid highcharts-yaxis-grid "><path fill="none" stroke="#B9CFD7" stroke-width="0.5" class="highcharts-grid-line" d="M 77 129.25 L 662 129.25" opacity="1"></path><path fill="none" stroke="#B9CFD7" stroke-width="0.5" class="highcharts-grid-line" d="M 77 86.25 L 662 86.25" opacity="1"></path><path fill="none" stroke="#B9CFD7" stroke-width="0.5" class="highcharts-grid-line" d="M 77 42.75 L 662 42.75" opacity="1"></path></g><rect fill="none" class="highcharts-plot-border" x="77" y="43" width="585" height="86"></rect><g class="highcharts-axis highcharts-xaxis "><path fill="none" class="highcharts-tick" stroke="#FFFFFF" stroke-width="1" d="M 104.5 129 L 104.5 139" opacity="1"></path><path fill="none" class="highcharts-tick" stroke="#FFFFFF" stroke-width="1" d="M 132.5 129 L 132.5 139" opacity="1"></path><path fill="none" class="highcharts-tick" stroke="#FFFFFF" stroke-width="1" d="M 160.5 129 L 160.5 139" opacity="1"></path><path fill="none" class="highcharts-tick" stroke="#FFFFFF" stroke-width="1" d="M 187.5 129 L 187.5 139" opacity="1"></path><path fill="none" class="highcharts-tick" stroke="#FFFFFF" stroke-width="1" d="M 215.5 129 L 215.5 139" opacity="1"></path><path fill="none" class="highcharts-tick" stroke="#FFFFFF" stroke-width="1" d="M 243.5 129 L 243.5 139" opacity="1"></path><path fill="none" class="highcharts-tick" stroke="#FFFFFF" stroke-width="1" d="M 271.5 129 L 271.5 139" opacity="1"></path><path fill="none" class="highcharts-tick" stroke="#FFFFFF" stroke-width="1" d="M 299.5 129 L 299.5 139" opacity="1"></path><path fill="none" class="highcharts-tick" stroke="#FFFFFF" stroke-width="1" d="M 327.5 129 L 327.5 139" opacity="1"></path><path fill="none" class="highcharts-tick" stroke="#FFFFFF" stroke-width="1" d="M 355.5 129 L 355.5 139" opacity="1"></path><path fill="none" class="highcharts-tick" stroke="#FFFFFF" stroke-width="1" d="M 382.5 129 L 382.5 139" opacity="1"></path><path fill="none" class="highcharts-tick" stroke="#FFFFFF" stroke-width="1" d="M 410.5 129 L 410.5 139" opacity="1"></path><path fill="none" class="highcharts-tick" stroke="#FFFFFF" stroke-width="1" d="M 438.5 129 L 438.5 139" opacity="1"></path><path fill="none" class="highcharts-tick" stroke="#FFFFFF" stroke-width="1" d="M 466.5 129 L 466.5 139" opacity="1"></path><path fill="none" class="highcharts-tick" stroke="#FFFFFF" stroke-width="1" d="M 494.5 129 L 494.5 139" opacity="1"></path><path fill="none" class="highcharts-tick" stroke="#FFFFFF" stroke-width="1" d="M 522.5 129 L 522.5 139" opacity="1"></path><path fill="none" class="highcharts-tick" stroke="#FFFFFF" stroke-width="1" d="M 550.5 129 L 550.5 139" opacity="1"></path><path fill="none" class="highcharts-tick" stroke="#FFFFFF" stroke-width="1" d="M 577.5 129 L 577.5 139" opacity="1"></path><path fill="none" class="highcharts-tick" stroke="#FFFFFF" stroke-width="1" d="M 605.5 129 L 605.5 139" opacity="1"></path><path fill="none" class="highcharts-tick" stroke="#FFFFFF" stroke-width="1" d="M 633.5 129 L 633.5 139" opacity="1"></path><path fill="none" class="highcharts-tick" stroke="#FFFFFF" stroke-width="1" d="M 662.5 129 L 662.5 139" opacity="1"></path><path fill="none" class="highcharts-tick" stroke="#FFFFFF" stroke-width="1" d="M 76.5 129 L 76.5 139" opacity="1"></path><path fill="none" class="highcharts-axis-line" stroke="#B9CFD7" stroke-width="0.5" d="M 77 129.25 L 662 129.25"></path></g><g class="highcharts-axis highcharts-yaxis "><path fill="none" class="highcharts-axis-line" d="M 77 43 L 77 129"></path></g><g class="highcharts-series-group"><g class="highcharts-series highcharts-series-0 highcharts-column-series highcharts-color-undefined " transform="translate(77,43) scale(1 1)" clip-path="url(#highcharts-525fd3m-7)"><rect x="6" y="74" width="8" height="13" fill="#CD9C00" class="highcharts-point"></rect><rect x="33" y="64" width="9" height="23" fill="#CD9C00" class="highcharts-point"></rect><rect x="61" y="46" width="9" height="41" fill="#CD9C00" class="highcharts-point"></rect><rect x="89" y="59" width="9" height="28" fill="#CD9C00" class="highcharts-point"></rect><rect x="117" y="41" width="8" height="46" fill="#CD9C00" class="highcharts-point"></rect><rect x="145" y="29" width="8" height="58" fill="#CD9C00" class="highcharts-point"></rect><rect x="173" y="49" width="8" height="38" fill="#CD9C00" class="highcharts-point"></rect><rect x="201" y="35" width="8" height="52" fill="#CD9C00" class="highcharts-point"></rect><rect x="228" y="62" width="9" height="25" fill="#CD9C00" class="highcharts-point"></rect><rect x="256" y="36" width="9" height="51" fill="#CD9C00" class="highcharts-point"></rect><rect x="284" y="30" width="9" height="57" fill="#CD9C00" class="highcharts-point"></rect><rect x="312" y="78" width="8" height="9" fill="#CD9C00" class="highcharts-point"></rect><rect x="340" y="74" width="8" height="13" fill="#CD9C00" class="highcharts-point"></rect><rect x="368" y="67" width="8" height="20" fill="#CD9C00" class="highcharts-point"></rect><rect x="396" y="61" width="8" height="26" fill="#CD9C00" class="highcharts-point"></rect><rect x="423" y="72" width="9" height="15" fill="#CD9C00" class="highcharts-point"></rect><rect x="451" y="40" width="9" height="47" fill="#CD9C00" class="highcharts-point"></rect><rect x="479" y="68" width="9" height="19" fill="#CD9C00" class="highcharts-point"></rect><rect x="507" y="80" width="8" height="7" fill="#CD9C00" class="highcharts-point"></rect><rect x="535" y="8" width="8" height="79" fill="#CD9C00" class="highcharts-point"></rect><rect x="563" y="81" width="8" height="6" fill="#CD9C00" class="highcharts-point"></rect></g><g class="highcharts-markers highcharts-series-0 highcharts-column-series highcharts-color-undefined " transform="translate(77,43) scale(1 1)" clip-path="none"></g><g class="highcharts-series highcharts-series-1 highcharts-column-series highcharts-color-undefined " transform="translate(77,43) scale(1 1)" clip-path="url(#highcharts-525fd3m-7)"><rect x="14" y="74" width="8" height="13" fill="#83522E" class="highcharts-point"></rect><rect x="42" y="63" width="8" height="24" fill="#83522E" class="highcharts-point"></rect><rect x="70" y="46" width="8" height="41" fill="#83522E" class="highcharts-point"></rect><rect x="98" y="58" width="8" height="29" fill="#83522E" class="highcharts-point"></rect><rect x="125" y="39" width="9" height="48" fill="#83522E" class="highcharts-point"></rect><rect x="153" y="28" width="9" height="59" fill="#83522E" class="highcharts-point"></rect><rect x="181" y="49" width="8" height="38" fill="#83522E" class="highcharts-point"></rect><rect x="209" y="35" width="8" height="52" fill="#83522E" class="highcharts-point"></rect><rect x="237" y="62" width="8" height="25" fill="#83522E" class="highcharts-point"></rect><rect x="265" y="36" width="8" height="51" fill="#83522E" class="highcharts-point"></rect><rect x="293" y="28" width="8" height="59" fill="#83522E" class="highcharts-point"></rect><rect x="320" y="77" width="9" height="10" fill="#83522E" class="highcharts-point"></rect><rect x="348" y="74" width="9" height="13" fill="#83522E" class="highcharts-point"></rect><rect x="376" y="66" width="8" height="21" fill="#83522E" class="highcharts-point"></rect><rect x="404" y="60" width="8" height="27" fill="#83522E" class="highcharts-point"></rect><rect x="432" y="68" width="8" height="19" fill="#83522E" class="highcharts-point"></rect><rect x="460" y="40" width="8" height="47" fill="#83522E" class="highcharts-point"></rect><rect x="488" y="68" width="8" height="19" fill="#83522E" class="highcharts-point"></rect><rect x="515" y="79" width="9" height="8" fill="#83522E" class="highcharts-point"></rect><rect x="543" y="8" width="9" height="79" fill="#83522E" class="highcharts-point"></rect><rect x="571" y="81" width="8" height="6" fill="#83522E" class="highcharts-point"></rect></g><g class="highcharts-markers highcharts-series-1 highcharts-column-series highcharts-color-undefined " transform="translate(77,43) scale(1 1)" clip-path="none"></g></g><text x="3" text-anchor="start" class="highcharts-title" style="color:#000000;font-size:10px;font-weight:bold;fill:#000000;" y="14"><tspan>Bruttogeschossfläche Wohnen</tspan></text><g class="highcharts-legend" transform="translate(68,7)"><rect fill="none" class="highcharts-legend-box" rx="0" ry="0" x="0" y="0" width="122" height="24" visibility="visible"></rect><g><g><g class="highcharts-legend-item highcharts-column-series highcharts-color-undefined highcharts-series-0" transform="translate(8,3)"><text x="21" style="color:#333333;font-size:10px;font-weight:normal;cursor:pointer;fill:#333333;" text-anchor="start" y="13"><tspan>2010</tspan></text><rect x="3" y="4" width="10" height="10" fill="#CD9C00" class="highcharts-point"></rect></g><g class="highcharts-legend-item highcharts-column-series highcharts-color-undefined highcharts-series-1" transform="translate(71.1875,3)"><text x="21" y="13" style="color:#333333;font-size:10px;font-weight:normal;cursor:pointer;fill:#333333;" text-anchor="start"><tspan>2015</tspan></text><rect x="3" y="4" width="10" height="10" fill="#83522E" class="highcharts-point"></rect></g></g></g></g><g class="highcharts-axis-labels highcharts-xaxis-labels "><text x="94.92857142857143" style="color:#000000;cursor:default;font-size:10;fill:#000000;" text-anchor="end" transform="translate(0,0) rotate(-90 94.92857142857143 141)" y="141" opacity="1"><tspan>Altstadt GB</tspan></text><text x="122.78571428571429" style="color:#000000;cursor:default;font-size:10;fill:#000000;" text-anchor="end" transform="translate(0,0) rotate(-90 122.78571428571429 141)" y="141" opacity="1"><tspan>Vorstädte</tspan></text><text x="150.64285714285714" style="color:#000000;cursor:default;font-size:10;fill:#000000;" text-anchor="end" transform="translate(0,0) rotate(-90 150.64285714285714 141)" y="141" opacity="1"><tspan>Am Ring</tspan></text><text x="178.50000000000003" style="color:#000000;cursor:default;font-size:10;fill:#000000;" text-anchor="end" transform="translate(0,0) rotate(-90 178.50000000000003 141)" y="141" opacity="1"><tspan>Breite</tspan></text><text x="206.35714285714286" style="color:#000000;cursor:default;font-size:10;fill:#000000;" text-anchor="end" transform="translate(0,0) rotate(-90 206.35714285714286 141)" y="141" opacity="1"><tspan>St. Alban</tspan></text><text x="234.21428571428572" style="color:#000000;cursor:default;font-size:10;fill:#000000;" text-anchor="end" transform="translate(0,0) rotate(-90 234.21428571428572 141)" y="141" opacity="1"><tspan>Gundeldingen</tspan></text><text x="262.07142857142856" style="color:#000000;cursor:default;font-size:10;fill:#000000;" text-anchor="end" transform="translate(0,0) rotate(-90 262.07142857142856 141)" y="141" opacity="1"><tspan>Bruderholz</tspan></text><text x="289.92857142857144" style="color:#000000;cursor:default;font-size:10;fill:#000000;" text-anchor="end" transform="translate(0,0) rotate(-90 289.92857142857144 141)" y="141" opacity="1"><tspan>Bachletten</tspan></text><text x="317.7857142857142" style="color:#000000;cursor:default;font-size:10;fill:#000000;" text-anchor="end" transform="translate(0,0) rotate(-90 317.7857142857142 141)" y="141" opacity="1"><tspan>Gotthelf</tspan></text><text x="345.64285714285717" style="color:#000000;cursor:default;font-size:10;fill:#000000;" text-anchor="end" transform="translate(0,0) rotate(-90 345.64285714285717 141)" y="141" opacity="1"><tspan>Iselin</tspan></text><text x="373.5" style="color:#000000;cursor:default;font-size:10;fill:#000000;" text-anchor="end" transform="translate(0,0) rotate(-90 373.5 141)" y="141" opacity="1"><tspan>St. Johann</tspan></text><text x="401.3571428571429" style="color:#000000;cursor:default;font-size:10;fill:#000000;" text-anchor="end" transform="translate(0,0) rotate(-90 401.3571428571429 141)" y="141" opacity="1"><tspan>Altstadt KB</tspan></text><text x="429.2142857142857" style="color:#000000;cursor:default;font-size:10;fill:#000000;" text-anchor="end" transform="translate(0,0) rotate(-90 429.2142857142857 141)" y="141" opacity="1"><tspan>Clara</tspan></text><text x="457.07142857142856" style="color:#000000;cursor:default;font-size:10;fill:#000000;" text-anchor="end" transform="translate(0,0) rotate(-90 457.07142857142856 141)" y="141" opacity="1"><tspan>Wettstein</tspan></text><text x="484.92857142857144" style="color:#000000;cursor:default;font-size:10;fill:#000000;" text-anchor="end" transform="translate(0,0) rotate(-90 484.92857142857144 141)" y="141" opacity="1"><tspan>Hirzbrunnen</tspan></text><text x="512.7857142857143" style="color:#000000;cursor:default;font-size:10;fill:#000000;" text-anchor="end" transform="translate(0,0) rotate(-90 512.7857142857143 141)" y="141" opacity="1"><tspan>Rosental</tspan></text><text x="540.6428571428572" style="color:#000000;cursor:default;font-size:10;fill:#000000;" text-anchor="end" transform="translate(0,0) rotate(-90 540.6428571428572 141)" y="141" opacity="1"><tspan>Matthäus</tspan></text><text x="568.5" style="color:#000000;cursor:default;font-size:10;fill:#000000;" text-anchor="end" transform="translate(0,0) rotate(-90 568.5 141)" y="141" opacity="1"><tspan>Klybeck</tspan></text><text x="596.3571428571429" style="color:#000000;cursor:default;font-size:10;fill:#000000;" text-anchor="end" transform="translate(0,0) rotate(-90 596.3571428571429 141)" y="141" opacity="1"><tspan>Kleinhüningen</tspan></text><text x="624.2142857142858" style="color:#000000;cursor:default;font-size:10;fill:#000000;" text-anchor="end" transform="translate(0,0) rotate(-90 624.2142857142858 141)" y="141" opacity="1"><tspan>Riehen</tspan></text><text x="652.0714285714286" style="color:#000000;cursor:default;font-size:10;fill:#000000;" text-anchor="end" transform="translate(0,0) rotate(-90 652.0714285714286 141)" y="141" opacity="1"><tspan>Bettingen</tspan></text></g><g class="highcharts-axis-labels highcharts-yaxis-labels "><text x="62" style="color:#000000;cursor:default;font-size:10;fill:#000000;" text-anchor="end" transform="translate(0,0)" y="135" opacity="1"><tspan>0 m²</tspan></text><text x="62" style="color:#000000;cursor:default;font-size:10;fill:#000000;" text-anchor="end" transform="translate(0,0)" y="92" opacity="1"><tspan>750 000 m²</tspan></text><text x="62" style="color:#000000;cursor:default;font-size:10;fill:#000000;" text-anchor="end" transform="translate(0,0)" y="49" opacity="1"><tspan>1 500 000 m²</tspan></text></g><text x="10" class="highcharts-credits" text-anchor="start" style="cursor:default;color:#000000;font-size:10;fill:#000000;" y="193"><tspan>Quelle: Planungsamt Basel-Stadt</tspan></text></svg>

<svg class="highcharts-root" xmlns="http://www.w3.org/2000/svg" width="665" height="208" font-family="arial" font-size="12">
    <defs>
        <clipPath id="a">
            <path fill="none" d="M0 0h585v86H0z"/>
        </clipPath>
    </defs>
    <rect fill="#fbfbfb" class="highcharts-background" width="665" height="208" rx="0" ry="0"/>
    <path fill="none" class="highcharts-plot-background" d="M77 43h585v86H77z"/>
    <g class="highcharts-grid highcharts-xaxis-grid">
        <path fill="none" class="highcharts-grid-line" d="M104.5 43v86m28-86v86m28-86v86m27-86v86m28-86v86m28-86v86m28-86v86m28-86v86m28-86v86m28-86v86m27-86v86m28-86v86m28-86v86m28-86v86m28-86v86m28-86v86m28-86v86m27-86v86m28-86v86m28-86v86m28-86v86m-585-86v86"/>
    </g>
    <g class="highcharts-grid highcharts-yaxis-grid">
        <path fill="none" stroke="#B9CFD7" stroke-width=".5" class="highcharts-grid-line" d="M77 129.25h585m-585-43h585M77 42.75h585"/>
    </g>
    <path fill="none" class="highcharts-plot-border" d="M77 43h585v86H77z"/>
    <g class="highcharts-axis highcharts-xaxis">
        <path fill="none" class="highcharts-tick" stroke="#FFF" d="M104.5 129v10m28-10v10m28-10v10m27-10v10m28-10v10m28-10v10m28-10v10m28-10v10m28-10v10m28-10v10m27-10v10m28-10v10m28-10v10m28-10v10m28-10v10m28-10v10m28-10v10m27-10v10m28-10v10m28-10v10m29-10v10m-586-10v10"/>
        <path fill="none" class="highcharts-axis-line" stroke="#B9CFD7" stroke-width=".5" d="M77 129.25h585"/>
    </g>
    <g class="highcharts-axis highcharts-yaxis">
        <path fill="none" class="highcharts-axis-line" d="M77 43v86"/>
    </g>
    <g class="highcharts-series-group">
        <g class="highcharts-series highcharts-series-0 highcharts-column-series highcharts-color-undefined" transform="translate(77 43)" clip-path="url(#a)">
            <path fill="#CD9C00" class="highcharts-point" d="M6 74h8v13H6zm27-10h9v23h-9zm28-18h9v41h-9zm28 13h9v28h-9zm28-18h8v46h-8zm28-12h8v58h-8zm28 20h8v38h-8zm28-14h8v52h-8zm27 27h9v25h-9zm28-26h9v51h-9zm28-6h9v57h-9zm28 48h8v9h-8zm28-4h8v13h-8zm28-7h8v20h-8zm28-6h8v26h-8zm27 11h9v15h-9zm28-32h9v47h-9zm28 28h9v19h-9zm28 12h8v7h-8zm28-72h8v79h-8zm28 73h8v6h-8z"/>
        </g>
        <g class="highcharts-series highcharts-series-1 highcharts-column-series highcharts-color-undefined" transform="translate(77 43)" clip-path="url(#a)">
            <path fill="#83522E" class="highcharts-point" d="M14 74h8v13h-8zm28-11h8v24h-8zm28-17h8v41h-8zm28 12h8v29h-8zm27-19h9v48h-9zm28-11h9v59h-9zm28 21h8v38h-8zm28-14h8v52h-8zm28 27h8v25h-8zm28-26h8v51h-8zm28-8h8v59h-8zm27 49h9v10h-9zm28-3h9v13h-9zm28-8h8v21h-8zm28-6h8v27h-8zm28 8h8v19h-8zm28-28h8v47h-8zm28 28h8v19h-8zm27 11h9v8h-9zm28-71h9v79h-9zm28 73h8v6h-8z"/>
        </g>
    </g>
    <text x="3" class="highcharts-title" y="14" color="#000" font-size="10" font-weight="700">
        <tspan>Bruttogeschossfläche Wohnen</tspan>
    </text>
    <g class="highcharts-legend" transform="translate(68 7)">
        <rect fill="none" class="highcharts-legend-box" rx="0" ry="0" width="122" height="24"/>
        <g class="highcharts-legend-item highcharts-column-series highcharts-color-undefined highcharts-series-0">
            <text x="21" y="13" color="#333" font-size="10" font-weight="400" cursor="pointer" fill="#333" transform="translate(8 3)">
                <tspan>2010</tspan>
            </text>
            <path fill="#CD9C00" class="highcharts-point" d="M11 7h10v10H11z"/>
        </g>
        <g class="highcharts-legend-item highcharts-column-series highcharts-color-undefined highcharts-series-1">
            <text x="21" y="13" color="#333" font-size="10" font-weight="400" cursor="pointer" fill="#333" transform="translate(71.188 3)">
                <tspan>2015</tspan>
            </text>
            <path fill="#83522E" class="highcharts-point" d="M74.188 7h10v10h-10z"/>
        </g>
    </g>
    <g class="highcharts-axis-labels highcharts-xaxis-labels" text-anchor="end" color="#000" cursor="default" font-size="10">
        <text x="94.929" transform="rotate(-90 94.929 141)" y="141">
            <tspan>Altstadt GB</tspan>
        </text>
        <text x="122.786" transform="rotate(-90 122.786 141)" y="141">
            <tspan>Vorstädte</tspan>
        </text>
        <text x="150.643" transform="rotate(-90 150.643 141)" y="141">
            <tspan>Am Ring</tspan>
        </text>
        <text x="178.5" transform="rotate(-90 178.5 141)" y="141">
            <tspan>Breite</tspan>
        </text>
        <text x="206.357" transform="rotate(-90 206.357 141)" y="141">
            <tspan>St. Alban</tspan>
        </text>
        <text x="234.214" transform="rotate(-90 234.214 141)" y="141">
            <tspan>Gundeldingen</tspan>
        </text>
        <text x="262.071" transform="rotate(-90 262.071 141)" y="141">
            <tspan>Bruderholz</tspan>
        </text>
        <text x="289.929" transform="rotate(-90 289.929 141)" y="141">
            <tspan>Bachletten</tspan>
        </text>
        <text x="317.786" transform="rotate(-90 317.786 141)" y="141">
            <tspan>Gotthelf</tspan>
        </text>
        <text x="345.643" transform="rotate(-90 345.643 141)" y="141">
            <tspan>Iselin</tspan>
        </text>
        <text x="373.5" transform="rotate(-90 373.5 141)" y="141">
            <tspan>St. Johann</tspan>
        </text>
        <text x="401.357" transform="rotate(-90 401.357 141)" y="141">
            <tspan>Altstadt KB</tspan>
        </text>
        <text x="429.214" transform="rotate(-90 429.214 141)" y="141">
            <tspan>Clara</tspan>
        </text>
        <text x="457.071" transform="rotate(-90 457.071 141)" y="141">
            <tspan>Wettstein</tspan>
        </text>
        <text x="484.929" transform="rotate(-90 484.929 141)" y="141">
            <tspan>Hirzbrunnen</tspan>
        </text>
        <text x="512.786" transform="rotate(-90 512.786 141)" y="141">
            <tspan>Rosental</tspan>
        </text>
        <text x="540.643" transform="rotate(-90 540.643 141)" y="141">
            <tspan>Matthäus</tspan>
        </text>
        <text x="568.5" transform="rotate(-90 568.5 141)" y="141">
            <tspan>Klybeck</tspan>
        </text>
        <text x="596.357" transform="rotate(-90 596.357 141)" y="141">
            <tspan>Kleinhüningen</tspan>
        </text>
        <text x="624.214" transform="rotate(-90 624.214 141)" y="141">
            <tspan>Riehen</tspan>
        </text>
        <text x="652.071" transform="rotate(-90 652.071 141)" y="141">
            <tspan>Bettingen</tspan>
        </text>
    </g>
    <g class="highcharts-axis-labels highcharts-yaxis-labels" text-anchor="end" color="#000" cursor="default" font-size="10">
        <text x="62" y="135">
            <tspan>0 m²</tspan>
        </text>
        <text x="62" y="92">
            <tspan>750 000 m²</tspan>
        </text>
        <text x="62" y="49">
            <tspan>1 500 000 m²</tspan>
        </text>
    </g>
    <text x="10" class="highcharts-credits" y="193" cursor="default" color="#000" font-size="10">
        <tspan>Quelle: Planungsamt Basel-Stadt</tspan>
    </text>
</svg>
